packages/core/src/svgs/tokens/branded/JASMY.svg

<svg width="24" height="24" viewBox="0 0 24 24" fill="none" xmlns="http://www.w3.org/2000/svg">
<path fill-rule="evenodd" clip-rule="evenodd" d="M8.57421 2.60275C9.13947 2.39688 9.72887 2.23982 10.3365 2.13806V2.65039H11.1836V2.03276C11.7371 1.98812 12.2935 1.9891 12.8471 2.0357V2.65039H13.6946V2.14335C14.3063 2.24805 14.8999 2.40805 15.4687 2.61804L15.2587 3.05391L16.0228 3.42155L16.251 2.94626C16.7851 3.19743 17.2933 3.49507 17.7709 3.83271L17.4492 4.20329L18.0898 4.75915L18.4428 4.35211C18.9015 4.73915 19.325 5.16737 19.7085 5.63029L19.3168 5.88146L19.7744 6.59497L20.2221 6.30734C20.5574 6.78968 20.8503 7.30378 21.0973 7.84258L20.6786 7.98199L20.9462 8.78608L21.4173 8.62962C21.6179 9.19019 21.7703 9.77433 21.8685 10.3766H21.4103V11.2366L21.9703 11.2242C22.0146 11.803 22.009 12.3846 21.9538 12.9624L21.9497 12.9418H21.3909V13.8018L21.8397 13.7923C21.7329 14.3821 21.573 14.9609 21.3621 15.5217L20.9808 15.3294L20.5927 16.0971L21.0279 16.3053C20.7749 16.8359 20.4756 17.3405 20.1367 17.8146L19.8438 17.5176L19.2316 18.1211L19.6091 18.4881C19.2281 18.9347 18.8087 19.347 18.3556 19.7205L18.1562 19.3587L17.4034 19.7734L17.6716 20.2369C17.2108 20.5548 16.7243 20.8334 16.2168 21.0698L16.1187 20.6958L15.287 20.9145L15.4252 21.3974C14.8528 21.6063 14.2558 21.7645 13.64 21.8662V21.4174H12.8281V21.9663C12.2646 22.0124 11.6981 22.0112 11.1347 21.9627V21.4262H10.323V21.8598C9.73889 21.7612 9.16491 21.6107 8.60774 21.4097L8.75008 20.9145L7.91834 20.6958L7.81599 21.0851C7.25474 20.8262 6.71873 20.5156 6.21487 20.1575L6.46721 19.881L5.90958 19.3728L5.61488 19.6963C5.16354 19.3213 4.74589 18.9077 4.3667 18.46L4.69374 18.2217L4.19552 17.5358L3.84612 17.7899C3.50141 17.3055 3.20063 16.7914 2.94732 16.2535L3.33966 16.137L3.09791 15.3247L2.61792 15.4676C2.41557 14.92 2.2591 14.35 2.155 13.7624L2.64321 13.7383L2.60204 12.8913L2.04205 12.9194C1.98899 12.3373 1.98643 11.7516 2.03441 11.1689L2.54616 11.2178L2.62499 10.3737L2.1397 10.3279C2.2397 9.73247 2.39263 9.15489 2.59262 8.6002L3.02555 8.79373L3.37142 8.01963L2.91497 7.81612C3.16026 7.28437 3.45084 6.77791 3.78201 6.30145L4.18964 6.62145L4.71314 5.955L4.29434 5.62618C4.67139 5.1709 5.08843 4.74973 5.53901 4.3674L5.84664 4.75503L6.51015 4.22799L6.20839 3.84741C6.70427 3.49448 7.23306 3.18567 7.7907 2.92686L8.01539 3.41743L8.78596 3.0645L8.57421 2.60275ZM12 20.2352C16.548 20.2352 20.235 16.5482 20.235 12.0001C20.235 7.45201 16.548 3.76506 12 3.76506C7.45188 3.76506 3.76495 7.45201 3.76495 12.0001C3.76495 16.5482 7.45188 20.2352 12 20.2352ZM19.6467 12.0001C19.6467 16.2235 16.2234 19.6469 12 19.6469C7.77658 19.6469 4.35316 16.2235 4.35316 12.0001C4.35316 7.7767 7.77658 4.35329 12 4.35329C16.2234 4.35329 19.6467 7.7767 19.6467 12.0001ZM12 7.88258C12.3119 7.88258 12.6113 7.75864 12.8318 7.53801C13.0525 7.31739 13.1765 7.01816 13.1765 6.70615C13.1765 6.39413 13.0525 6.09491 12.8318 5.87428C12.6113 5.65365 12.3119 5.52972 12 5.52972C11.688 5.52972 11.3888 5.65365 11.1681 5.87428C10.9475 6.09491 10.8236 6.39413 10.8236 6.70615C10.8236 7.01816 10.9475 7.31739 11.1681 7.53801C11.3888 7.75864 11.688 7.88258 12 7.88258ZM9.05889 10.8236L13.1765 8.55257V12.0877L17.294 10.0067V10.7919L13.1765 12.88V15.4841C13.1765 17.4741 11.9894 18.7063 10.5547 18.7063C9.25947 18.7063 8.02069 18.0317 8.02069 16.4005C8.02069 14.9112 9.69126 13.686 11.4117 12.8795V10.3619L9.05889 11.5572V10.8236ZM11.4117 15.1547V13.7648C10.4523 14.3317 9.79887 15.2641 9.68646 15.8635C9.57419 16.4635 9.66532 17.417 10.4541 17.2811C11.2436 17.1447 11.4117 15.8635 11.4117 15.1547Z" fill="#F6931E"/>
</svg>

<svg xmlns="http://www.w3.org/2000/svg" width="24" height="24" fill="none" viewBox="0 0 24 24">
    <path fill="#F6931E" fill-rule="evenodd" d="M8.574 2.603a10 10 0 0 1 1.762-.465v.512h.848v-.617q.832-.067 1.663.003v.614h.848v-.507a10 10 0 0 1 1.774.475l-.21.436.764.368.228-.476c.534.251 1.042.55 1.52.887l-.322.37.64.556.354-.407q.689.582 1.265 1.278l-.391.251.457.714.448-.288q.504.726.875 1.536l-.418.139.267.804.471-.156q.302.841.451 1.747h-.458v.86l.56-.013q.067.87-.016 1.738l-.004-.02h-.56v.86l.45-.01a10 10 0 0 1-.478 1.73l-.381-.193-.388.768.435.208a10 10 0 0 1-.891 1.51l-.293-.297-.612.603.377.367q-.572.671-1.253 1.233l-.2-.362-.753.414.269.464a10 10 0 0 1-1.455.833l-.098-.374-.832.218.138.483a10 10 0 0 1-1.785.47v-.45h-.812v.55q-.846.068-1.693-.004v-.537h-.812v.434a10 10 0 0 1-1.715-.45l.142-.495-.832-.22-.102.39a10 10 0 0 1-1.601-.928l.252-.276-.557-.508-.295.323a10 10 0 0 1-1.248-1.236l.327-.238-.498-.686-.35.254a10 10 0 0 1-.899-1.537l.393-.116-.242-.812-.48.143a10 10 0 0 1-.463-1.706l.488-.024-.041-.847-.56.028a10 10 0 0 1-.008-1.75l.512.049.079-.844-.485-.046q.151-.895.453-1.728l.433.194.345-.774-.456-.204a10 10 0 0 1 .867-1.515l.408.32.523-.666-.419-.329q.567-.684 1.245-1.259l.308.388.663-.527-.302-.38a10 10 0 0 1 1.583-.921l.224.49.771-.353zM12 20.235a8.235 8.235 0 1 0 0-16.47 8.235 8.235 0 0 0 0 16.47M19.647 12a7.646 7.646 0 1 1-15.294 0 7.647 7.647 0 1 1 15.294 0M12 7.883a1.176 1.176 0 1 0 0-2.353 1.176 1.176 0 0 0 0 2.353m-2.941 2.94 4.118-2.27v3.535l4.117-2.081v.785l-4.117 2.088v2.604c0 1.99-1.188 3.222-2.622 3.222-1.296 0-2.534-.674-2.534-2.305 0-1.49 1.67-2.715 3.39-3.521v-2.518L9.06 11.557zm2.353 4.332v-1.39c-.96.567-1.613 1.5-1.726 2.098-.112.6-.02 1.554.768 1.418.79-.136.958-1.417.958-2.126" clip-rule="evenodd"/>
</svg>
